X: 8
T:Cock of the North
R: 32-bar single jig
M:6/8
K:G %Transposed from A
d|"G"B2B BAG|"G"GBd "C"e2d|"G"B2B BAG|"A7"ABA "D7"A2c|
"G"B2B BAG|"G"GBd "C"e2d|"G"B2B "D7"ABA|"G"G3 G2:|
d|:"G"g2d "C"e2d|"G"g2d "C"e2d|"G"BcB BAG|"Am"A3 "D7"A2d|
"G"g2d "C"e2d|"G"g2d "C"e2d|"G"B2B "D7"ABA|"G"G3 G2:|
